material/.icons/material/rodent.svg

<svg xmlns="http://www.w3.org/2000/svg" viewBox="0 0 24 24"><path d="M21.33 17.39c1.4 1.27.47 3.61-1.41 3.61h-8.86A5.04 5.04 0 016 15.94v-.05c-2.3-.47-4-2.48-4-4.89 0-2.75 2.22-5 5-5h2.5c.3 0 .5-.23.5-.5S9.8 5 9.5 5H7V3h2.5C10.88 3 12 4.13 12 5.5 12 6.89 10.88 8 9.5 8H7c-1.66 0-3 1.33-3 3 0 1.37.92 2.5 2.14 2.87.56-2.2 2.53-3.87 4.92-3.87.8 0 1.6.22 2.3.55-1.41.79-2.36 2.25-2.36 3.95 0 1.25.5 2.37 1.33 3.17l.7-.7c-.65-.61-1.03-1.5-1.03-2.47 0-2.59 2.34-3.5 3.5-3.5 2.08 0 3.95 1.89 3.44 4.23l2.39 2.16M18 19c.56 0 1-.44 1-1s-.44-1-1-1-1 .44-1 1 .44 1 1 1z"/></svg>

<?xml version="1.0" encoding="UTF-8"?><!DOCTYPE svg PUBLIC "-//W3C//DTD SVG 1.1//EN" "http://www.w3.org/Graphics/SVG/1.1/DTD/svg11.dtd"><svg xmlns="http://www.w3.org/2000/svg" xmlns:xlink="http://www.w3.org/1999/xlink" version="1.1" id="mdi-rodent" width="24" height="24" viewBox="0 0 24 24"><path d="M21.33 17.39C22.73 18.66 21.8 21 19.92 21H11.06C8.25 21 6 18.75 6 15.94V15.89C3.7 15.42 2 13.41 2 11C2 8.25 4.22 6 7 6H9.5C9.8 6 10 5.77 10 5.5S9.8 5 9.5 5H7V3H9.5C10.88 3 12 4.13 12 5.5C12 6.89 10.88 8 9.5 8H7C5.34 8 4 9.33 4 11C4 12.37 4.92 13.5 6.14 13.87C6.7 11.67 8.67 10 11.06 10C11.86 10 12.66 10.22 13.36 10.55C11.95 11.34 11 12.8 11 14.5C11 15.75 11.5 16.87 12.33 17.67L13.03 16.97C12.38 16.36 12 15.47 12 14.5C12 11.91 14.34 11 15.5 11C17.58 11 19.45 12.89 18.94 15.23L21.33 17.39M18 19C18.56 19 19 18.56 19 18S18.56 17 18 17 17 17.44 17 18 17.44 19 18 19Z" /></svg>
